tools/download-figma-icons/icons/outlined-large/alarm-sensor.svg

<svg width="64" height="64" viewBox="0 0 64 64" fill="none" xmlns="http://www.w3.org/2000/svg">
<path fill-rule="evenodd" clip-rule="evenodd" d="M56.8752 60.8839C57.0972 60.8839 57.2782 60.7039 57.2782 60.4809V25.2109C57.2782 25.0949 57.2272 24.9839 57.1392 24.9079L57.1354 24.9043L57.1331 24.9021L57.1312 24.8999L52.8592 21.1329C52.5362 20.8479 52.3512 20.4389 52.3512 20.0079V9.40688H46.5982V12.2899C46.5982 12.8789 46.2532 13.4149 45.7152 13.6569C45.1802 13.8989 44.5492 13.8049 44.1062 13.4149L32.3942 3.08588C32.3242 3.02588 32.2342 2.99488 32.1412 2.99488C32.0482 2.99488 31.9522 3.02788 31.8762 3.09288L7.14724 24.8999C7.05024 24.9839 7.00024 25.0949 7.00024 25.2109V60.4809C7.00024 60.7039 7.18024 60.8839 7.40324 60.8839H56.8752ZM55.3512 19.3319L59.1102 22.6459C59.8522 23.2929 60.2782 24.2269 60.2782 25.2109V60.4809C60.2782 62.3579 58.7522 63.8839 56.8752 63.8839H7.40324C5.52624 63.8839 4.00024 62.3579 4.00024 60.4809V25.2109C4.00024 24.2249 4.42624 23.2899 5.17224 22.6419L29.8992 0.835876C31.1802 -0.278124 33.0972 -0.277124 34.3712 0.829876L43.5982 8.96688V7.90688C43.5982 7.07888 44.2702 6.40688 45.0982 6.40688H53.8512C54.6792 6.40688 55.3512 7.07888 55.3512 7.90688V19.3319ZM29.1386 38.6469C29.1386 40.3009 30.4846 41.6469 32.1386 41.6469C33.7926 41.6469 35.1386 40.3009 35.1386 38.6469C35.1386 36.9929 33.7926 35.6469 32.1386 35.6469C30.4846 35.6469 29.1386 36.9929 29.1386 38.6469ZM26.1386 38.6469C26.1386 35.3379 28.8296 32.6469 32.1386 32.6469C35.4476 32.6469 38.1386 35.3379 38.1386 38.6469C38.1386 41.9559 35.4476 44.6469 32.1386 44.6469C28.8296 44.6469 26.1386 41.9559 26.1386 38.6469ZM25.0673 29.4779C24.4813 28.8919 23.5323 28.8919 22.9463 29.4779C17.8783 34.5459 17.8783 42.7929 22.9463 47.8619C23.2393 48.1549 23.6233 48.3009 24.0063 48.3009C24.3903 48.3009 24.7743 48.1549 25.0673 47.8619C25.6533 47.2759 25.6533 46.3269 25.0673 45.7409C21.1693 41.8419 21.1693 35.4979 25.0673 31.5989C25.6533 31.0129 25.6533 30.0639 25.0673 29.4779ZM39.21 29.4779C39.796 28.8919 40.745 28.8919 41.331 29.4779C43.786 31.9329 45.139 35.1979 45.139 38.6689C45.139 42.1419 43.786 45.4069 41.331 47.8619C41.038 48.1549 40.654 48.3009 40.27 48.3009C39.887 48.3009 39.503 48.1549 39.21 47.8619C38.624 47.2759 38.624 46.3269 39.21 45.7409C41.099 43.8519 42.139 41.3409 42.139 38.6689C42.139 35.9989 41.099 33.4879 39.21 31.5989C38.624 31.0129 38.624 30.0639 39.21 29.4779ZM20.1181 26.6254C20.7041 26.0394 20.7041 25.0904 20.1181 24.5044C19.5321 23.9184 18.5831 23.9184 17.9971 24.5044C10.1991 32.3024 10.1991 44.9904 17.9971 52.7884C18.2901 53.0814 18.6741 53.2284 19.0571 53.2284C19.4411 53.2284 19.8251 53.0814 20.1181 52.7884C20.7041 52.2024 20.7041 51.2534 20.1181 50.6674C13.4901 44.0384 13.4901 33.2544 20.1181 26.6254ZM44.1601 26.6253C43.5741 26.0393 43.5741 25.0903 44.1601 24.5043C44.7461 23.9183 45.6951 23.9183 46.2811 24.5043C54.0791 32.3023 54.0791 44.9903 46.2811 52.7883C45.9881 53.0813 45.6041 53.2283 45.2211 53.2283C44.8371 53.2283 44.4531 53.0813 44.1601 52.7883C43.5741 52.2023 43.5741 51.2533 44.1601 50.6673C50.7881 44.0383 50.7881 33.2543 44.1601 26.6253Z" fill="black"/>
</svg>

<svg xmlns="http://www.w3.org/2000/svg" width="64" height="64" fill="none" viewBox="0 0 64 64"><path fill="currentColor" fill-rule="evenodd" d="M56.875 60.884c.222 0 .403-.18.403-.403V25.21a.4.4 0 0 0-.139-.303l-.004-.004-.002-.002-.002-.002-4.272-3.767a1.5 1.5 0 0 1-.508-1.125v-10.6h-5.753v2.883a1.499 1.499 0 0 1-2.492 1.125L32.394 3.085a.4.4 0 0 0-.253-.09.4.4 0 0 0-.265.098L7.147 24.9a.4.4 0 0 0-.147.31v35.27c0 .224.18.404.403.404zm-1.524-41.552 3.76 3.314a3.4 3.4 0 0 1 1.167 2.565v35.27a3.406 3.406 0 0 1-3.403 3.403H7.403A3.406 3.406 0 0 1 4 60.48V25.21c0-.986.426-1.921 1.172-2.57L29.9.837A3.42 3.42 0 0 1 34.371.83l9.227 8.137v-1.06a1.5 1.5 0 0 1 1.5-1.5h8.753a1.5 1.5 0 0 1 1.5 1.5zM29.14 38.647c0 1.654 1.346 3 3 3s3-1.346 3-3-1.346-3-3-3-3 1.346-3 3m-3 0c0-3.31 2.69-6 6-6s6 2.69 6 6-2.691 6-6 6-6-2.691-6-6m-1.072-9.17a1.5 1.5 0 0 0-2.12 0c-5.069 5.069-5.069 13.316 0 18.385.292.293.676.439 1.06.439a1.5 1.5 0 0 0 1.061-2.56c-3.899-3.9-3.899-10.243 0-14.142a1.5 1.5 0 0 0 0-2.121m14.143 0a1.5 1.5 0 0 1 2.121 0 12.92 12.92 0 0 1 3.808 9.192c0 3.473-1.353 6.738-3.808 9.193a1.5 1.5 0 0 1-1.061.439 1.5 1.5 0 0 1-1.06-2.56 9.94 9.94 0 0 0 2.929-7.072c0-2.67-1.04-5.181-2.929-7.07a1.5 1.5 0 0 1 0-2.121M20.12 26.627a1.5 1.5 0 1 0-2.12-2.12c-7.799 7.797-7.799 20.485 0 28.283a1.496 1.496 0 0 0 2.12 0 1.5 1.5 0 0 0 0-2.12c-6.628-6.63-6.628-17.414 0-24.043m24.042 0a1.5 1.5 0 1 1 2.121-2.12c7.798 7.797 7.798 20.485 0 28.283a1.496 1.496 0 0 1-2.12 0 1.5 1.5 0 0 1 0-2.12c6.627-6.63 6.627-17.414 0-24.043" clip-rule="evenodd"/></svg>
